X:1
T:Title
%%score { ( 1 3 ) | 2 }
L:1/8
Q:1/4=93
M:6/8
K:G
V:1 treble nm="Grand Piano"
V:3 treble 
V:2 bass 
V:1
 [DB][DB][DB] [DB][DA][DG] | EFG D3 | [B,D][B,E][B,D] [B,D][B,E][B,D] | [CF]3 [CF]3 | %4
w: C.~Austin~Miles * * * * *||||
 [Fc][Fc][Fc] [Fc][FB][FA] | GGA B3 | ABA AB^c | [DFd]3 [CD]3 | [B,DB][DB][DB] [DB][DA][DG] | %9
w: |||||
 EFG D3 | DEF GAB | [Ge]3 [Ge]3 | ccc cBA | [Fd][Fd][Fd] [EG]3 | [^CA][CB][CA] [CA][CB][G^c] | %15
w: ||||||
 [Fd]6 | DEF cBA | G2 e d3 | DEF cBA | G2 e d3 | ece dBd | cAc .B2 B | ABA [EG][DF][^CE] | %23
w: ||||||||
 z dd ddd | DEF cBA | G2 e d3 | DEF cBA | G2 e d3 | ece dBd | cAc .B2 B | [EA][EB][Ec] [DB]2 [CA] | %31
w: ||||||||
 [B,G]6 |] %32
w: |
V:2
 [G,,G,][G,,G,][G,,G,] [G,,G,][A,,G,][B,,G,] | [C,G,C][D,G,C][E,G,C] [G,B,]3 | %2
 [G,,G,][G,,G,][G,,G,] [G,,G,][G,,G,][G,,G,] | [D,A,]3 [D,A,]3 | %4
 [D,A,][D,A,][D,A,] [D,A,][D,B,][D,C] | [G,B,D][G,B,D][G,CD] [G,DG]3 | %6
 [A,DF][A,DF][A,DF] [A,^CG][A,DG][A,EG] | D,3 D,3 | G,,[G,,G,][G,,G,] [G,,G,][A,,G,][B,,G,] | %9
 [C,G,C][D,G,C][E,G,C] [G,B,]3 | [G,B,][G,B,][G,B,][K:treble] [G,B,D][G,CD][G,DG] | [C,C]3 [C,C]3 | %12
 [A,CE][A,CE][A,CE] [A,CE][^G,DE][A,CE] | [D,C][D,C][D,C] [E,B,]3 | %14
 [A,,E,][A,,E,][A,,F,] [A,,G,][A,,G,][A,,A,] | [D,A,]6 | %16
 [D,F,A,C]2 [D,F,A,C] [D,F,A,C]2 [D,F,A,C] | [G,B,]2[K:treble] [G,CG] [G,B,G]3 | %18
 [D,F,A,C]2 [D,F,A,C] [D,F,A,C]2 [D,F,A,C] | [G,B,]2[K:treble] [G,CG] [G,B,G]3 | [CG]3 [B,DG]3 | %21
 [A,DF]3 .[G,DG]3 | [A,DF][A,DG][A,DF][K:bass] [A,,A,][A,,A,][A,,G,] | [D,F,]6 | %24
 [D,F,A,C]2 [D,F,A,C] [D,F,A,C]2 [D,F,A,C] | [G,B,]2[K:treble] [G,CG] [G,B,G]3 | %26
 [D,F,A,C]2 [D,F,A,C] [D,F,A,C]2 [D,F,A,C] | [G,B,]2[K:treble] [G,CG] [G,B,G]3 | [CG]3 [B,DG]3 | %29
 [A,DF]3 .[G,DG]3 | [C,A,][B,,^G,][A,,A,] [D,=G,]2 [D,F,] | [G,,G,]6 |] %32
V:3
 x6 | x6 | x6 | x6 | x6 | x6 | x6 | x6 | x6 | x6 | x6 | x6 | x6 | x6 | x6 | x6 | x6 | x6 | x6 | %19
 x6 | x6 | z3 z G2 | x6 | D6 | x6 | x6 | x6 | x6 | x6 | z3 z G2 | x6 | x6 |] %32

